!!!!SEGMENT: pl-kk--kk-i-382--025_anonim--offertorium.krn
!!!cenid: 18xx:1527
!!!COM: Anonim
!!!COM-rismID: pe30004985
!!!CDT:
!!!CNT:
!!!OTL: Offertorium
!!!PDT:
!!!AGN: Sacred
!!!SMS-siglum: PL-Kk
!!!SMS-shelfmark: Kk.I.382
!!!SMS-shelfwork: 025 W
!!!SMS-variant:
!!!SMS-altvar:
!!!NIFC-rismSourceID: 1001139027
!!!NIFC-rismChildID: 1001140169
!!!NIFC-islandoraID: pl-kk:6162
!!!URL-pdf-islandora: https://repozytorium.nifc.pl/islandora/object/pl-kk%3A6162/datastream/PDF/view
!!!URL-scan: https://polish.musicsources.pl/pl/lokalizacje/galeria/rekopisy/5994 @EN{Scan on Polish Music Sources Website} @PL{Skany w portalu Dziedzictwo Muzyki Polskiej w otwartym dostępie}
!!!IIIF:
!!!ONB-nifc: UWAGA: obsada: S (T 1) (skan 0033)
!!!AIN: 1 tenor
!!!key:
**kern	**text	**dynam
*Itenor	*	*
*I"Soprano vel Tenore I.	*	*
*I'S (T 1)	*	*
*clefC1	*	*
*k[]	*	*
*a:	*	*
*M6/8	*	*
=1	=1	=1
*2\right	*	*
!LO:TX:t=P:problem="60" przekreślone ołówkiem	!	!
!LO:TX:a:i:t=Offertoryum. \n 60.	!	!
!LO:TX:t=P:problem=all\right&colon; global	!	!
!	!	!LO:TX:a:t=P:problem=w źródle "p" zapisane na pięciolinii
!	!	!LO:DY:rj
!	!	!LO:DY:a
4cc\	Spoi-	p
8cc\	-rzey	.
8b\	Ła-	.
8b\	-ska-	.
8b\	-wy	.
=2	=2	=2
(>8a\L	Pa-	.
8b\	.	.
8g#X\J	.	.
4a\	.	.
8b\)	-nie,	.
=3	=3	=3
4cc\	z wy-	.
8cc\	-so-	.
4dd\	-kie-	.
16cc\LL	-go	.
16b\JJ	.	.
=4	=4	=4
4.b\	Nie-	.
4b\	-ba	.
!LO:N:vis=4	!	!
8r	.	.
=5	=5	=5
4cc\	na	.
8cc\	to	.
8b\	of-	.
8b\	-fia-	.
8b\	-ro-	.
!LO:LB:g=original	!	!
=6	=6	=6
(>8a\L	-wa-	.
8b\	.	.
8g#X\J	.	.
4a\)	.	.
8b\	-nie	.
=7	=7	=7
4.cc\	Wi-	.
4dd\	-na	.
8b\	i	.
=8	=8	=8
4.cc\	chle-	.
4cc\	-ba,	.
8r	.	.
=9	=9	=9
8b\L	niech	.
8ee\J	.	.
8dd\	ci	.
8dd\	w re-	.
8cc\	-ku	.
8cc\	Ka-	.
=10	=10	=10
8cc\L	-pła-	.
16b\L	.	.
16a\J	.	.
8b\J	.	.
4b\	-na,	.
8ee\	przy-	.
!LO:LB:g=original	!	!
=11	=11	=11
(>4ffn\	-tom-	.
8ee\)	.	.
4dd\	-ne	.
8cc\	te	.
=12	=12	=12
4.b\	da-	.
4b\	-ry,	.
8r	.	.
=13	=13	=13
4cc\	dro-	.
8cc\	-gie	.
8b\	Chry-	.
8b\	-stu-	.
8b\	-sa	.
=14	=14	=14
8a\L	Pa-	.
8b\	.	.
8g#X\J	.	.
4a\	-na,	.
8ee\	przed-	.
=15	=15	=15
8ee\L	-sta-	.
8ff\J	.	.
8dd\	-wia-	.
8cc\L	-ią	.
8dd\J	.	.
8b\	Of-	.
!LO:LB:g=original	!	!
=16	=16	=16
4.a\	-fia-	.
4a\	-ry,	.
8r	.	.
=17||	=17||	=17||
4cc\	Chry-	.
8cc\	-stus	.
8b\	chle-	.
8b\	-bem	.
8b\	ła-	.
=18	=18	=18
8a\L	-ma-	.
8b\	.	.
8g#X\J	.	.
4a\	-nem,	.
8b\	Smierć	.
=19	=19	=19
4cc\	swo-	.
8cc\	-ią	.
4dd\	nam	.
16cc\LL	wy-	.
16b\JJ	.	.
=20	=20	=20
4.b\	-ia-	.
4b\	-wił,	.
8r	.	.
!LO:LB:g=original	!	!
=21	=21	=21
4cc\	i	.
8cc\	w kie-	.
8b\	-li-	.
8b\	-chu	.
8b\	po-	.
=22	=22	=22
8a\L	-da-	.
8b\	.	.
8g#X\J	.	.
4a\	-nem,	.
8b\	Krew	.
=23	=23	=23
4.cc\	swię-	.
4dd\	-tą	.
8cc\	zo-	.
=24	=24	=24
4.b\	-sta-	.
4b\	-wił.	.
8r	.	.
=25	=25	=25
8b\L	dla	.
8ee\J	.	.
8dd\	grze-	.
8dd\	-szni-	.
8cc\	-kow	.
8cc\	ko-	.
!LO:LB:g=original	!	!
=26	=26	=26
(>8cc\L	-na-	.
16b\L	.	.
16a\JJ	.	.
8b\)	.	.
4b\	-iąc	.
8ee\	bła-	.
=27	=27	=27
4ffn\	-gał	.
8ee\	cie-	.
4dd\	-bie	.
8cc\	mo-	.
=28	=28	=28
4.b\	-dła-	.
4b\	-mi,	.
8r	.	.
=29	=29	=29
4cc\	na	.
8cc\	to	.
8b\	Pa-	.
8b\	-nie	.
8b\	zwa-	.
=30	=30	=30
8a\L	-rza-	.
8b\	.	.
8g#X\J	.	.
4a\	-iąc	.
8ee\	zmi-	.
!LO:LB:g=original	!	!
=31	=31	=31
(>8ee\L	-łui	.
8ff\J	.	.
8dd\)	.	.
8cc\L	się	.
8dd\J	.	.
8b\	nad	.
=32	=32	=32
4.a\	na-	.
4a\	-mi.	.
8r	.	.
==	==	==
*-	*-	*-
!!!system-decoration: [(s1)]
!!!RDF**kern: > = above
!!!RDF**kern: < = below
!!!EED: Antoni Szymański
!!!EEV: 2021-02-08
!!!ENC: Andrzej Gręziak
!!!END: 2021-01-29
!!!YEC: Copyright 2022 Narodowy Instytut Fryderyka Chopina (https://polishscores.org)
!!!YEM: License CC-BY-4.0 (https://creativecommons.org/licenses/by/4.0)
